X:1
T:Our Ain Fireside  "Arr. Bill Boxall"
M:6/8
L:1/8
Q:80
C:F. Scott Skinner
S:Slow Air
K:HP
|: A | \
{GAG}A3/2{d}c/2{e}B/2{G}A/2{g}e2f | \
{g}e3{d}c2{g}B | \
{G}A3/2{d}c/2{e}B/2{G}A/2{g}e2{d}c |
{g}B3{GdG}B2{G}A | | \
{GAG}A3/2{d}c/2{e}B/2{G}A/2{g}e3/2f/2{a}g/2a/2 | \
e3{d}c2{g}c/2B/2 |
{G}A3/2{d}B/2{e}A/2{d}B/2{GdG}c2{e}B | \
{G}A3{GAG}A3 | | \
{g}f3/2d/2{g}A/2d/2{g}f2a |
e3{d}c2{g}B | \
{G}A3/2{d}c/2{e}B/2{G}A/2{g}e2{d}c | \
{g}B3{GdG}B2{G}A| |
{GAG}A3/2{d}c/2{e}B/2{G}A/2{g}e3/2f/2{a}g/2a/2 | \
e3{d}c2{g}B | \
{G}A3/2{d}B/2{e}A/2{d}B/2{GdG}c2{e}B |
{G}A3{GAG}A3 :|
